poi/svg/1808.svg

<?xml version="1.0" encoding="UTF-8" standalone="no"?>
<svg
   xmlns:dc="http://purl.org/dc/elements/1.1/"
   xmlns:cc="http://creativecommons.org/ns#"
   xmlns:rdf="http://www.w3.org/1999/02/22-rdf-syntax-ns#"
   xmlns:svg="http://www.w3.org/2000/svg"
   xmlns="http://www.w3.org/2000/svg"
   xmlns:sodipodi="http://sodipodi.sourceforge.net/DTD/sodipodi-0.dtd"
   xmlns:inkscape="http://www.inkscape.org/namespaces/inkscape"
   inkscape:version="1.0 (4035a4fb49, 2020-05-01)"
   sodipodi:docname="1808.svg"
   id="svg20"
   version="1.2"
   viewBox="0 0 42.519639 42.519639"
   height="14.999999mm"
   width="14.999999mm">
  <metadata
     id="metadata24">
    <rdf:RDF>
      <cc:Work
         rdf:about="">
        <dc:format>image/svg+xml</dc:format>
        <dc:type
           rdf:resource="http://purl.org/dc/dcmitype/StillImage" />
        <dc:title>Qt SVG Document</dc:title>
      </cc:Work>
    </rdf:RDF>
  </metadata>
  <sodipodi:namedview
     inkscape:current-layer="svg20"
     inkscape:window-maximized="0"
     inkscape:window-y="0"
     inkscape:window-x="0"
     inkscape:cy="28.346482"
     inkscape:cx="28.346482"
     inkscape:zoom="5.8410537"
     showgrid="false"
     id="namedview22"
     inkscape:window-height="480"
     inkscape:window-width="1034"
     inkscape:pageshadow="2"
     inkscape:pageopacity="0"
     guidetolerance="10"
     gridtolerance="10"
     objecttolerance="10"
     borderopacity="1"
     bordercolor="#666666"
     pagecolor="#ffffff" />
  <title
     id="title2">Qt SVG Document</title>
  <desc
     id="desc4">Generated with Qt</desc>
  <defs
     id="defs6" />
  <g
     transform="translate(5.25984,5.25984)"
     id="g18"
     stroke-linejoin="bevel"
     stroke-linecap="square"
     fill-rule="evenodd"
     stroke-width="1"
     stroke="#000000"
     fill="none">
    <g
       id="g10"
       font-style="normal"
       font-weight="400"
       font-size="7.8px"
       font-family="'MS Shell Dlg 2'"
       stroke="none"
       fill-opacity="1"
       fill="#a61215">
      <path
         id="path8"
         d="M 37.2598,16 C 37.2598,27.7415 27.7415,37.2598 16,37.2598 4.25851,37.2598 -5.25984,27.7415 -5.25984,16 -5.25984,4.25851 4.25851,-5.25984 16,-5.25984 27.7415,-5.25984 37.2598,4.25851 37.2598,16"
         fill-rule="evenodd"
         vector-effect="non-scaling-stroke" />
    </g>
    <g
       id="g14"
       font-style="normal"
       font-weight="400"
       font-size="7.8px"
       font-family="'MS Shell Dlg 2'"
       transform="translate(16,13.1654)"
       stroke="none"
       fill-opacity="0.94902"
       fill="#ffffff">
      <path
         id="path12"
         d="M -7.94531,1.98926 H -6.9165 V 2.76611 L -7.94531,3.62695 -7.77734,15.6787 H -10.4858 L -10.3179,3.62695 -11.3047,2.76611 V 1.98926 h 0.9868 l 0.084,-3.08643 -1.0708,-0.86084 v -0.73486 h 1.0708 v -1.88965 c 0,-0.19596 0.014,-0.47241 0.042,-0.82935 0.028,-0.35693 0.0875,-0.71036 0.1785,-1.0603 0.09096,-0.34993 0.20643,-0.65088 0.34641,-0.90283 0.13997,-0.25195 0.32894,-0.37793 0.56689,-0.37793 0.19597,0 0.35694,0.12598 0.48291,0.37793 0.12598,0.25195 0.22746,0.5529 0.30445,0.90283 0.07698,0.34994 0.12947,0.70337 0.15747,1.0603 0.02799,0.35694 0.04199,0.63339 0.04199,0.82935 l 0.08398,1.88965 h 1.02881 v 0.73486 l -1.02881,0.86084 0.08399,3.08643 M 10.3633,-1.09717 v 3.08643 h 0.9868 V 2.76611 L 10.3633,3.62695 10.6362,15.6787 H 7.82275 L 8.01172,3.62695 6.98291,2.76611 V 1.98926 H 8.0957 V -1.09717 L 7.06689,-1.95801 v -0.73486 h 1.1128 v -1.88965 c 0,-0.19596 0.01399,-0.47241 0.04199,-0.82935 0.02799,-0.35693 0.07699,-0.71036 0.14697,-1.0603 0.06999,-0.34993 0.17147,-0.65088 0.30445,-0.90283 0.13297,-0.25195 0.29744,-0.37793 0.4934,-0.37793 0.19597,0 0.36744,0.12598 0.51441,0.37793 0.14697,0.25195 0.26245,0.5529 0.34639,0.90283 0.084,0.34994 0.147,0.70337 0.189,1.0603 0.042,0.35694 0.063,0.63339 0.063,0.82935 v 1.88965 h 1.0708 v 0.73486 l -0.9868,0.86084 M 3.62354,6.25146 H 6.54199 V 15.5107 H 1.41895 v -3.2753 c 0,-0.168 -0.06999,-0.3535 -0.20997,-0.5564 C 1.06901,11.476 0.915039,11.2765 0.74707,11.0806 0.537109,10.8426 0.306152,10.6117 0.0541992,10.3877 c -0.2659502,0.224 -0.4969072,0.4549 -0.6928712,0.6929 -0.167969,0.1959 -0.318441,0.3954 -0.451418,0.5984 -0.13297,0.2029 -0.19946,0.3884 -0.19946,0.5564 v 3.2753 H -6.53857 V 6.25146 h 2.98144 V 5.91553 C -3.64111,5.64958 -3.7216,5.40462 -3.79858,5.18066 -3.87557,4.95671 -3.91406,4.71175 -3.91406,4.4458 c 0,-0.5179 0.10148,-1.03931 0.30444,-1.56421 0.20296,-0.5249 0.46891,-1.01131 0.79785,-1.45923 0.32894,-0.447913 0.72437,-0.815345 1.18628,-1.102292 0.46192,-0.2869463 0.951825,-0.458414 1.469728,-0.514404 V -1.43311 C -0.673665,-1.4891 -1.13558,-1.65356 -1.5415,-1.92651 c -0.40593,-0.27295 -0.70687,-0.64038 -0.90284,-1.1023 -0.32194,-0.65788 -0.33243,-1.30876 -0.03149,-1.95264 0.30094,-0.64388 0.81535,-1.12679 1.543213,-1.44873 0.391927,-0.13997 0.783854,-0.20296 1.175781,-0.18896 0.391927,0.014 0.783856,0.13297 1.175786,0.35693 -0.573898,-0.19596 -1.056808,-0.16797 -1.4487352,0.08399 -0.5738928,0.23795 -0.9763148,0.60538 -1.2072748,1.10229 -0.23096,0.49691 -0.22046,1.03231 0.03149,1.6062 0.237959,0.48991 0.636885,0.85035 1.19678094,1.0813 C 0.551107,-2.15747 1.118,-2.15397 1.69189,-2.37793 2.11182,-2.50391 2.46875,-2.80485 2.7627,-3.28076 2.49674,-2.48291 1.96484,-1.93001 1.16699,-1.62207 1.02702,-1.55208 0.876546,-1.50309 0.715576,-1.4751 c -0.16097,0.028 -0.325439,0.04199 -0.493408,0.04199 v 1.238774 C 0.740072,-0.138346 1.22648,0.0331217 1.6814,0.320068 2.13631,0.607015 2.53874,0.974447 2.88867,1.42236 3.23861,1.87028 3.50456,2.35669 3.68652,2.88159 3.86849,3.40649 3.95947,3.9279 3.95947,4.4458 3.95947,4.71175 3.93848,4.9637 3.89648,5.20166 3.85449,5.43962 3.76351,5.67757 3.62354,5.91553 v 0.33593"
         fill-rule="evenodd"
         vector-effect="none" />
    </g>
    <g
       id="g16"
       font-style="normal"
       font-weight="400"
       font-size="7.8px"
       font-family="'MS Shell Dlg 2'"
       stroke="none"
       fill-opacity="1"
       fill="#a61215" />
  </g>
</svg>

<?xml version="1.0" encoding="UTF-8" standalone="no"?>
<svg width="11.2889mm" height="11.2889mm"
 viewBox="0 0 32 32"
 xmlns="http://www.w3.org/2000/svg" xmlns:xlink="http://www.w3.org/1999/xlink"  version="1.2" baseProfile="tiny">
<title>Qt SVG Document</title>
<desc>Generated with Qt</desc>
<defs>
</defs>
<g fill="none" stroke="black" stroke-width="1" fill-rule="evenodd" stroke-linecap="square" stroke-linejoin="bevel" >

<g fill="#a61215" fill-opacity="1" stroke="none" transform="matrix(1,0,0,1,0,0)"
font-family="MS Shell Dlg 2" font-size="7.8" font-weight="400" font-style="normal" 
>
<path vector-effect="non-scaling-stroke" fill-rule="evenodd" d="M37.2598,16 C37.2598,27.7415 27.7415,37.2598 16,37.2598 C4.25851,37.2598 -5.25984,27.7415 -5.25984,16 C-5.25984,4.25851 4.25851,-5.25984 16,-5.25984 C27.7415,-5.25984 37.2598,4.25851 37.2598,16 "/>
</g>

<g fill="#ffffff" fill-opacity="0.94902" stroke="none" transform="matrix(1,0,0,1,16,13.1654)"
font-family="MS Shell Dlg 2" font-size="7.8" font-weight="400" font-style="normal" 
>
<path vector-effect="none" fill-rule="evenodd" d="M-7.94531,1.98926 L-6.9165,1.98926 L-6.9165,2.76611 L-7.94531,3.62695 L-7.77734,15.6787 L-10.4858,15.6787 L-10.3179,3.62695 L-11.3047,2.76611 L-11.3047,1.98926 L-10.3179,1.98926 L-10.2339,-1.09717 L-11.3047,-1.95801 L-11.3047,-2.69287 L-10.2339,-2.69287 L-10.2339,-4.58252 C-10.2339,-4.77848 -10.2199,-5.05493 -10.1919,-5.41187 C-10.1639,-5.7688 -10.1044,-6.12223 -10.0134,-6.47217 C-9.92244,-6.8221 -9.80697,-7.12305 -9.66699,-7.375 C-9.52702,-7.62695 -9.33805,-7.75293 -9.1001,-7.75293 C-8.90413,-7.75293 -8.74316,-7.62695 -8.61719,-7.375 C-8.49121,-7.12305 -8.38973,-6.8221 -8.31274,-6.47217 C-8.23576,-6.12223 -8.18327,-5.7688 -8.15527,-5.41187 C-8.12728,-5.05493 -8.11328,-4.77848 -8.11328,-4.58252 L-8.0293,-2.69287 L-7.00049,-2.69287 L-7.00049,-1.95801 L-8.0293,-1.09717 L-7.94531,1.98926 M10.3633,-1.09717 L10.3633,1.98926 L11.3501,1.98926 L11.3501,2.76611 L10.3633,3.62695 L10.6362,15.6787 L7.82275,15.6787 L8.01172,3.62695 L6.98291,2.76611 L6.98291,1.98926 L8.0957,1.98926 L8.0957,-1.09717 L7.06689,-1.95801 L7.06689,-2.69287 L8.17969,-2.69287 L8.17969,-4.58252 C8.17969,-4.77848 8.19368,-5.05493 8.22168,-5.41187 C8.24967,-5.7688 8.29867,-6.12223 8.36865,-6.47217 C8.43864,-6.8221 8.54012,-7.12305 8.6731,-7.375 C8.80607,-7.62695 8.97054,-7.75293 9.1665,-7.75293 C9.36247,-7.75293 9.53394,-7.62695 9.68091,-7.375 C9.82788,-7.12305 9.94336,-6.8221 10.0273,-6.47217 C10.1113,-6.12223 10.1743,-5.7688 10.2163,-5.41187 C10.2583,-5.05493 10.2793,-4.77848 10.2793,-4.58252 L10.2793,-2.69287 L11.3501,-2.69287 L11.3501,-1.95801 L10.3633,-1.09717 M3.62354,6.25146 L6.54199,6.25146 L6.54199,15.5107 L1.41895,15.5107 L1.41895,12.2354 C1.41895,12.0674 1.34896,11.8819 1.20898,11.679 C1.06901,11.476 0.915039,11.2765 0.74707,11.0806 C0.537109,10.8426 0.306152,10.6117 0.0541992,10.3877 C-0.211751,10.6117 -0.442708,10.8426 -0.638672,11.0806 C-0.806641,11.2765 -0.957113,11.476 -1.09009,11.679 C-1.22306,11.8819 -1.28955,12.0674 -1.28955,12.2354 L-1.28955,15.5107 L-6.53857,15.5107 L-6.53857,6.25146 L-3.55713,6.25146 L-3.55713,5.91553 C-3.64111,5.64958 -3.7216,5.40462 -3.79858,5.18066 C-3.87557,4.95671 -3.91406,4.71175 -3.91406,4.4458 C-3.91406,3.9279 -3.81258,3.40649 -3.60962,2.88159 C-3.40666,2.35669 -3.14071,1.87028 -2.81177,1.42236 C-2.48283,0.974447 -2.0874,0.607015 -1.62549,0.320068 C-1.16357,0.0331217 -0.673665,-0.138346 -0.155762,-0.194336 L-0.155762,-1.43311 C-0.673665,-1.4891 -1.13558,-1.65356 -1.5415,-1.92651 C-1.94743,-2.19946 -2.24837,-2.56689 -2.44434,-3.02881 C-2.76628,-3.68669 -2.77677,-4.33757 -2.47583,-4.98145 C-2.17489,-5.62533 -1.66048,-6.10824 -0.932617,-6.43018 C-0.54069,-6.57015 -0.148763,-6.63314 0.243164,-6.61914 C0.635091,-6.60514 1.02702,-6.48617 1.41895,-6.26221 C0.845052,-6.45817 0.362142,-6.43018 -0.0297852,-6.17822 C-0.603678,-5.94027 -1.0061,-5.57284 -1.23706,-5.07593 C-1.46802,-4.57902 -1.45752,-4.04362 -1.20557,-3.46973 C-0.967611,-2.97982 -0.568685,-2.61938 -0.00878906,-2.38843 C0.551107,-2.15747 1.118,-2.15397 1.69189,-2.37793 C2.11182,-2.50391 2.46875,-2.80485 2.7627,-3.28076 C2.49674,-2.48291 1.96484,-1.93001 1.16699,-1.62207 C1.02702,-1.55208 0.876546,-1.50309 0.715576,-1.4751 C0.554606,-1.4471 0.390137,-1.43311 0.222168,-1.43311 L0.222168,-0.194336 C0.740072,-0.138346 1.22648,0.0331217 1.6814,0.320068 C2.13631,0.607015 2.53874,0.974447 2.88867,1.42236 C3.23861,1.87028 3.50456,2.35669 3.68652,2.88159 C3.86849,3.40649 3.95947,3.9279 3.95947,4.4458 C3.95947,4.71175 3.93848,4.9637 3.89648,5.20166 C3.85449,5.43962 3.76351,5.67757 3.62354,5.91553 L3.62354,6.25146"/>
</g>

<g fill="#a61215" fill-opacity="1" stroke="none" transform="matrix(1,0,0,1,0,0)"
font-family="MS Shell Dlg 2" font-size="7.8" font-weight="400" font-style="normal" 
>
</g>
</g>
</svg>
